X: 1
T: Mike to the Rescue
C: Andrea Beaton
R: reel
S: the Concord Slow Scottish Jam collection 2016-10
N: Presented by Andrea Beaton, Boston Harbor Scottish Fiddle School, August 2011
Z: 2016 John Chambers <jc:trillian.mit.edu>
M: C|
L: 1/8
K: D
A, |:\
D2FE FDDF | ABdA B2AB | defb afef | dBAF E/E/E EF |
D2FE FDDF | ABdA B2AB | defb afef | dBAF D/D/D D :|
|:  g | faag fedB | ABdA B2AB | defb afef | dBAF E/E/E
[1 EG | faag fedB | ABcA B2AB | defb afef | dBAF D/D/D D :|
[2 EF | D2FE FDDF | ABdA B2AB | defb afef | dBAF D/D/D D |]
